icons/fill-ele-other-s-opportunity-light-bulb-lamp.svg

<svg xmlns="http://www.w3.org/2000/svg" width="32px" height="32px" viewBox="0 0 32 32" version="1.1">
    <title>fill-ele-other-s-opportunity-light-bulb-lamp</title>
    <g id="fill-ele-other-s-opportunity-light-bulb-lamp" stroke-width="1" fill-rule="evenodd">
        <path d="M16,2 C22.0751322,2 27,6.92486775 27,13 C27,16.4142955 25.4444452,19.4652717 23.0033859,21.4828783 C21.6815921,22.5753794 21,24.5 21,26 L11,26 L10.9974968,25.6547692 C10.9753266,24.3346024 10.774293,23.0477585 9.21254861,21.6671474 L9.00102899,21.4865255 C6.55743055,19.4689495 5,16.4163534 5,13 C5,6.92486775 9.92486775,2 16,2 Z M16,5 C11.581722,5 8,8.581722 8,13 C8,13.5522847 8.44771525,14 9,14 C9.55228475,14 10,13.5522847 10,13 C10,9.6862915 12.6862915,7 16,7 C16.5522847,7 17,6.55228475 17,6 C17,5.44771525 16.5522847,5 16,5 Z M20,28 C20.5522847,28 21,28.4477153 21,29 C21,29.5522847 20.5522847,30 20,30 L12,30 C11.4477153,30 11,29.5522847 11,29 C11,28.4477153 11.4477153,28 12,28 L20,28 Z" id="&#24418;&#29366;" />
    </g>
</svg>

<svg xmlns="http://www.w3.org/2000/svg" viewBox="0 0 32 32"><path fill="currentColor" d="M16 2c6.075 0 11 4.925 11 11 0 3.414-1.556 6.465-3.997 8.483C21.682 22.575 21 24.5 21 26H11l-.003-.345c-.022-1.32-.223-2.607-1.784-3.988L9 21.487A10.978 10.978 0 0 1 5 13C5 6.925 9.925 2 16 2m0 3a8 8 0 0 0-8 8 1 1 0 0 0 2 0 6 6 0 0 1 6-6 1 1 0 0 0 0-2m4 23a1 1 0 0 1 0 2h-8a1 1 0 0 1 0-2z"/></svg>
